X:795
T:Reel 795
M:4/4
K:Gmaj
L:1/8
ge|dBGB A2Ac|B2BG ABce|dBAB G2ga|bagf g2:|ga|b2bg a2c'a|g2ag efga|b2bg c'2ac'|bgaf gedc|B2BG A2cA|b2bg a2ga|bd'ag c'e'd'c'|bgaf gedc|
